X:198
T:score275
L:1/8
Q:1/4=120
M:6/8
I:linebreak $
K:G
 B!p! | d2 d (_e>d)c | (d2 B) (c>B)A | B>(DG/B/) !trill(!TA3 | B3- B2 d |!mf! (g2 d) _e>dc | %6
 (d2 g/a/) b2 b |!f! (b2 f) (g>f)e |!p! (b2 f) (g2 e) | (=f>ed/c/) B2 ^D | E3- E2 z |] %11
